packages/icons/raw/imported/FilesExternalLink.svg

<svg width="32" height="32" viewBox="0 0 32 32" fill="none" xmlns="http://www.w3.org/2000/svg">
<path d="M7 10.6625H6.5H7ZM7 22.0001H7.5H7ZM21.3376 25.0001V24.5001V25.0001ZM10 25.0001V25.5001V25.0001ZM13.6683 8.16254C13.9444 8.16254 14.1683 7.93868 14.1683 7.66254C14.1683 7.38639 13.9444 7.16254 13.6683 7.16254L13.6683 8.16254ZM10 7.66252L10 8.16252L10 7.66252ZM24.8376 18.3318C24.8376 18.0557 24.6137 17.8318 24.3376 17.8318C24.0614 17.8318 23.8376 18.0557 23.8376 18.3318H24.8376ZM24.3376 22.0001H24.8376H24.3376ZM13.9816 17.3114C13.7863 17.5067 13.7863 17.8232 13.9816 18.0185C14.1768 18.2138 14.4934 18.2138 14.6887 18.0185L13.9816 17.3114ZM24.6911 8.01607C24.8864 7.82081 24.8864 7.50423 24.6911 7.30896C24.4959 7.1137 24.1793 7.1137 23.984 7.30896L24.6911 8.01607ZM19.0038 7.16248C18.7276 7.16197 18.5034 7.38542 18.5029 7.66156C18.5024 7.9377 18.7258 8.16197 19.002 8.16247L19.0038 7.16248ZM24.3375 7.67224L24.8375 7.67224C24.8375 7.39646 24.6142 7.17275 24.3384 7.17224L24.3375 7.67224ZM23.8375 12.9971C23.8375 13.2732 24.0614 13.4971 24.3375 13.4971C24.6137 13.4971 24.8375 13.2732 24.8375 12.9971L23.8375 12.9971ZM6.5 10.6625L6.5 22.0001H7.5L7.5 10.6625H6.5ZM21.3376 24.5001L10 24.5001V25.5001L21.3376 25.5001V24.5001ZM13.6683 7.16254L10 7.16252L10 8.16252L13.6683 8.16254L13.6683 7.16254ZM23.8376 18.3318V22.0001H24.8376V18.3318H23.8376ZM7.5 10.6625C7.5 9.28181 8.61929 8.16252 10 8.16252L10 7.16252C8.06701 7.16252 6.5 8.72952 6.5 10.6625H7.5ZM6.5 22.0001C6.5 23.9331 8.067 25.5001 10 25.5001V24.5001C8.61929 24.5001 7.5 23.3808 7.5 22.0001H6.5ZM21.3376 25.5001C23.2706 25.5001 24.8376 23.9331 24.8376 22.0001H23.8376C23.8376 23.3808 22.7183 24.5001 21.3376 24.5001V25.5001ZM14.6887 18.0185L24.6911 8.01607L23.984 7.30896L13.9816 17.3114L14.6887 18.0185ZM19.002 8.16247L24.3366 8.17224L24.3384 7.17224L19.0038 7.16248L19.002 8.16247ZM23.8375 7.67224L23.8375 12.9971L24.8375 12.9971L24.8375 7.67224L23.8375 7.67224Z" fill="black"/>
</svg>

<svg width="32" height="32" fill="none" xmlns="http://www.w3.org/2000/svg"><path d="M7 10.662h-.5.5ZM7 22h.5H7Zm14.338 3v-.5.5ZM10 25v.5-.5Zm3.668-16.837a.5.5 0 0 0 0-1v1ZM10 7.663v.5-.5Zm14.838 10.669a.5.5 0 0 0-1 0h1Zm-.5 3.668h.5-.5Zm-10.356-4.689a.5.5 0 1 0 .707.707l-.707-.707Zm10.71-9.295a.5.5 0 1 0-.708-.707l.707.707Zm-5.688-.854a.5.5 0 1 0-.002 1l.002-1Zm5.333.51h.5a.5.5 0 0 0-.499-.5v.5Zm-.5 5.325a.5.5 0 0 0 1 0h-1ZM6.5 10.662V22h1V10.662h-1ZM21.338 24.5H10v1h11.338v-1Zm-7.67-17.337H10v1h3.668v-1Zm10.17 11.169V22h1v-3.668h-1ZM7.5 10.662a2.5 2.5 0 0 1 2.5-2.5v-1a3.5 3.5 0 0 0-3.5 3.5h1ZM6.5 22a3.5 3.5 0 0 0 3.5 3.5v-1A2.5 2.5 0 0 1 7.5 22h-1Zm14.838 3.5a3.5 3.5 0 0 0 3.5-3.5h-1a2.5 2.5 0 0 1-2.5 2.5v1Zm-6.65-7.482L24.692 8.016l-.707-.707-10.002 10.002.707.707Zm4.314-9.856 5.335.01.001-1-5.334-.01-.002 1Zm4.835-.49v5.325h1V7.672h-1Z" fill="#000"/></svg>
